contributed-vectors/curve.svg

<?xml version="1.0" encoding="UTF-8" standalone="no"?>
<svg
   xmlns:dc="http://purl.org/dc/elements/1.1/"
   xmlns:cc="http://creativecommons.org/ns#"
   xmlns:rdf="http://www.w3.org/1999/02/22-rdf-syntax-ns#"
   xmlns:svg="http://www.w3.org/2000/svg"
   xmlns="http://www.w3.org/2000/svg"
   xmlns:sodipodi="http://sodipodi.sourceforge.net/DTD/sodipodi-0.dtd"
   xmlns:inkscape="http://www.inkscape.org/namespaces/inkscape"
   width="100%"
   height="100%"
   viewBox="0 0 192 192"
   version="1.1"
   xml:space="preserve"
   style="fill-rule:evenodd;clip-rule:evenodd;stroke-linejoin:round;stroke-miterlimit:2;"
   id="svg13"
   sodipodi:docname="curve.svg"
   inkscape:export-filename="/home/jphilippe/github/delta/android/contributed-vectors/curve.png"
   inkscape:export-xdpi="96"
   inkscape:export-ydpi="96"
   inkscape:version="1.0.1 (3bc2e813f5, 2020-09-07)"><metadata
   id="metadata19"><rdf:RDF><cc:Work
       rdf:about=""><dc:format>image/svg+xml</dc:format><dc:type
         rdf:resource="http://purl.org/dc/dcmitype/StillImage" /></cc:Work></rdf:RDF></metadata><defs
   id="defs17" /><sodipodi:namedview
   pagecolor="#ffffff"
   bordercolor="#666666"
   borderopacity="1"
   objecttolerance="10"
   gridtolerance="10"
   guidetolerance="10"
   inkscape:pageopacity="0"
   inkscape:pageshadow="2"
   inkscape:window-width="1884"
   inkscape:window-height="1052"
   id="namedview15"
   showgrid="false"
   inkscape:zoom="3.3697917"
   inkscape:cx="96"
   inkscape:cy="96"
   inkscape:window-x="36"
   inkscape:window-y="0"
   inkscape:window-maximized="1"
   inkscape:current-layer="svg13" />
    <g
   id="g868"
   transform="matrix(0.99346405,0,0,0.99346405,0.6274512,0.6274512)"><g
     transform="translate(8,8)"
     id="g4"
     style="fill:#585b5d;fill-opacity:1">
            <path
   d="m 164.5,21.5 c 0,-5.519 -4.481,-10 -10,-10 h -133 c -5.519,0 -10,4.481 -10,10 v 133 c 0,5.519 4.481,10 10,10 h 133 c 5.519,0 10,-4.481 10,-10 z"
   style="fill:#585b5d;fill-opacity:1"
   id="path2" />
        </g><g
     transform="matrix(0.646347,-0.452577,0.452577,0.646347,-9.49659,77.3982)"
     id="g10">
            <path
   d="m 131.591,133.937 c 1.045,0 1.983,0.641 2.362,1.614 0.38,0.973 0.123,2.08 -0.646,2.787 -8.908,7.82 -20.283,12.906 -32.803,13.897 -0.698,0.048 -1.385,-0.195 -1.897,-0.672 -0.511,-0.478 -0.802,-1.146 -0.802,-1.846 -0.011,-3.553 -0.011,-9.794 -0.011,-13.268 0,-1.387 1.125,-2.512 2.512,-2.512 6.197,0 22.359,0 31.285,0 z m 16.512,-26.686 c 0.783,0 1.521,0.362 2.002,0.979 0.48,0.618 0.648,1.423 0.455,2.181 -1.594,6.01 -4.148,11.631 -7.496,16.684 -0.47,0.702 -1.259,1.123 -2.104,1.123 -6.225,0.003 -32.391,0.003 -40.654,0.003 -0.666,0 -1.305,-0.265 -1.776,-0.736 -0.471,-0.471 -0.736,-1.11 -0.736,-1.776 0,-4.034 0,-11.911 0,-15.946 0,-0.666 0.265,-1.305 0.736,-1.776 0.471,-0.471 1.11,-0.736 1.776,-0.736 8.775,0 38.054,0 47.797,0 z m 0.241,-26.604 c 1.163,-0.001 2.176,0.789 2.46,1.917 1.049,4.307 1.608,8.807 1.608,13.436 0,1.083 -0.03,2.159 -0.091,3.227 -0.077,1.341 -1.186,2.388 -2.529,2.388 -8.869,0.001 -40.337,0.001 -49.486,0.001 -0.666,0 -1.305,-0.264 -1.776,-0.735 -0.471,-0.472 -0.736,-1.11 -0.736,-1.777 0,-4.034 0,-11.911 0,-15.945 0,-0.666 0.265,-1.305 0.736,-1.777 0.471,-0.471 1.11,-0.735 1.776,-0.735 9.061,0 39.953,0 48.038,0 z"
   style="fill:#ebebeb"
   id="path6" />
            <path
   d="m 92.194,149.516 c 0,0.72 -0.306,1.406 -0.842,1.887 -0.535,0.481 -1.25,0.711 -1.966,0.634 C 61.363,148.749 39.588,124.897 39.588,96 39.588,64.865 64.865,39.588 96,39.588 c 22.316,0 41.622,12.986 50.77,31.807 0.371,0.782 0.315,1.7 -0.148,2.432 -0.463,0.732 -1.268,1.175 -2.134,1.175 -4.84,0.01 -12.854,0.01 -15.985,0.01 -0.819,-0.001 -1.588,-0.397 -2.064,-1.065 C 119.61,64.527 108.515,58.4 96,58.4 75.248,58.4 58.4,75.248 58.4,96 c 0,18.722 13.713,34.267 31.634,37.128 1.236,0.186 2.15,1.248 2.15,2.498 0.01,3.456 0.01,10.122 0.01,13.89 z"
   style="fill:#ebebeb"
   id="path8" />
        </g></g>
</svg>

<?xml version="1.0" encoding="UTF-8" standalone="no"?>
<!DOCTYPE svg PUBLIC "-//W3C//DTD SVG 1.1//EN" "http://www.w3.org/Graphics/SVG/1.1/DTD/svg11.dtd">
<svg width="100%" height="100%" viewBox="0 0 192 192" version="1.1" xmlns="http://www.w3.org/2000/svg" xmlns:xlink="http://www.w3.org/1999/xlink" xml:space="preserve" xmlns:serif="http://www.serif.com/" style="fill-rule:evenodd;clip-rule:evenodd;stroke-linejoin:round;stroke-miterlimit:2;">
    <g id="Layer1">
        <g transform="matrix(1,0,0,1,8,8)">
            <path d="M164.5,21.5C164.5,15.981 160.019,11.5 154.5,11.5L21.5,11.5C15.981,11.5 11.5,15.981 11.5,21.5L11.5,154.5C11.5,160.019 15.981,164.5 21.5,164.5L154.5,164.5C160.019,164.5 164.5,160.019 164.5,154.5L164.5,21.5Z" style="fill:rgb(74,74,74);"/>
        </g>
        <g transform="matrix(0.646347,-0.452577,0.452577,0.646347,-9.49659,77.3982)">
            <path d="M131.591,133.937C132.636,133.937 133.574,134.578 133.953,135.551C134.333,136.524 134.076,137.631 133.307,138.338C124.399,146.158 113.024,151.244 100.504,152.235C99.806,152.283 99.119,152.04 98.607,151.563C98.096,151.085 97.805,150.417 97.805,149.717C97.794,146.164 97.794,139.923 97.794,136.449C97.794,135.062 98.919,133.937 100.306,133.937C106.503,133.937 122.665,133.937 131.591,133.937ZM148.103,107.251C148.886,107.251 149.624,107.613 150.105,108.23C150.585,108.848 150.753,109.653 150.56,110.411C148.966,116.421 146.412,122.042 143.064,127.095C142.594,127.797 141.805,128.218 140.96,128.218C134.735,128.221 108.569,128.221 100.306,128.221C99.64,128.221 99.001,127.956 98.53,127.485C98.059,127.014 97.794,126.375 97.794,125.709C97.794,121.675 97.794,113.798 97.794,109.763C97.794,109.097 98.059,108.458 98.53,107.987C99.001,107.516 99.64,107.251 100.306,107.251C109.081,107.251 138.36,107.251 148.103,107.251ZM148.344,80.647C149.507,80.646 150.52,81.436 150.804,82.564C151.853,86.871 152.412,91.371 152.412,96C152.412,97.083 152.382,98.159 152.321,99.227C152.244,100.568 151.135,101.615 149.792,101.615C140.923,101.616 109.455,101.616 100.306,101.616C99.64,101.616 99.001,101.352 98.53,100.881C98.059,100.409 97.794,99.771 97.794,99.104C97.794,95.07 97.794,87.193 97.794,83.159C97.794,82.493 98.059,81.854 98.53,81.382C99.001,80.911 99.64,80.647 100.306,80.647C109.367,80.647 140.259,80.647 148.344,80.647Z" style="fill:rgb(235,235,235);"/>
            <path d="M92.194,149.516C92.194,150.236 91.888,150.922 91.352,151.403C90.817,151.884 90.102,152.114 89.386,152.037C61.363,148.749 39.588,124.897 39.588,96C39.588,64.865 64.865,39.588 96,39.588C118.316,39.588 137.622,52.574 146.77,71.395C147.141,72.177 147.085,73.095 146.622,73.827C146.159,74.559 145.354,75.002 144.488,75.002C139.648,75.012 131.634,75.012 128.503,75.012C127.684,75.011 126.915,74.615 126.439,73.947C119.61,64.527 108.515,58.4 96,58.4C75.248,58.4 58.4,75.248 58.4,96C58.4,114.722 72.113,130.267 90.034,133.128C91.27,133.314 92.184,134.376 92.184,135.626C92.194,139.082 92.194,145.748 92.194,149.516Z" style="fill:rgb(235,235,235);"/>
        </g>
    </g>
</svg>
